!!!!SEGMENT: pl-sa--79-a-ii-19--003_siwinski-andrzej--missa-pro-defunctis-dies-irae.krn
!!!cenid: 17xx:295
!!!COM: Siwiński, Andrzej
!!!COM-rismID: pe41011487
!!!CDT: <1725->1725
!!!CNT:
!!!OPR: Missa pro defunctis
!!!OTL: Dies irae
!!!OMV: 003
!!!PDT: 1726
!!!AGN: Sacred; Mass
!!!SMS-siglum: PL-SA
!!!SMS-shelfmark: 79/A II 19
!!!SMS-shelfwork: 001-003 M
!!!NIFC-rismSourceID: 1001070177
!!!NIFC-rismChildID: 1001070177
!!!NIFC-islandoraID: none
!!!URL-pdf-islandora:
!!!URL-scan: https://bc.bdsandomierz.pl/dlibra/publication/1356/edition/1324/content @EN{Scan in the Sandomierz Diocese Digital Library} @PL{Skany w portalu Cyfrowa Biblioteka Diecezjalna w Sandomierzu}
!!!IIIF:
!!!ONB-nifc: Uwaga: części Mszy: Requiem, Kyrie, Dies Irae, Quantus tremor, Tuba mirrum, Mors, Quid sum miser, Rex tremende, Quaerens me, Iuste iudex, Oro supplex, Pie Iesu Domine, Domine Iesu Christe,Quam olim Abrahae, Hostias, Sanctus, Osanna, Benedictus, Agnus Dei
!!!AIN: 1 alto 3 empty 2 oboe 2 violn 1 vox
!!!key:
**kern	**fba	**kern	**kern	**kern	**kern	**kern	**kern	**text	**kern	**kern
*part9	*part9	*part8	*part7	*part6	*part5	*part4	*part3	*part3	*part2	*part1
*staff9	*staff9	*staff8	*staff7	*staff6	*staff5	*staff4	*staff3	*staff3	*staff2	*staff1
*Iempty	*	*Ivioln	*Ivioln	*Iempty	*Iempty	*Ialto	*Ivox	*	*Ioboe	*Ioboe
*I"P9	*	*I"Violino. 2do	*I"Violino 1mo	*I"P6	*I"P5	*I"Alto.	*I"Canto.	*	*I"Hobois 2do	*I"Hautbo. 1mo.
*I'Org.	*	*I'vn II	*I'vn I	*I'B	*I'T	*I'A	*I'C	*	*I'ob II	*I'ob I
*clefF4	*	*clefG2	*clefG2	*clefF4	*clefC4	*clefC3	*clefC1	*	*clefG2	*clefG2
*k[b-e-]	*	*k[b-e-]	*k[b-e-]	*k[b-e-]	*k[b-e-]	*k[b-e-]	*k[b-e-]	*	*k[b-e-]	*k[b-e-]
*c:dor	*	*c:dor	*c:dor	*c:dor	*c:dor	*c:dor	*c:dor	*	*c:dor	*c:dor
*M2/2	*	*M2/2	*M2/2	*M2/2	*M2/2	*M2/2	*M2/2	*	*M2/2	*M2/2
*met(c|)	*	*met(c|)	*met(c|)	*met(c|)	*met(c|)	*met(c|)	*met(c|)	*	*met(c|)	*met(c|)
=1	=1	=1	=1	=1	=1	=1	=1	=1	=1	=1
!LO:TX:a:t=P:problem=mixed beam	!	!	!	!	!	!	!	!	!	!
!LO:TX:a:i:t=Solo	!	!	!	!	!	!	!	!	!	!
!LO:TX:a:t=Dies Irae. Canto solo.	!	!	!	!LO:TX:a:t=Dies irae Tacet	!LO:TX:a:t=Dies ire Tacet	!	!	!	!	!
!LO:SIC:o:s:t:=:v:brak nazwy partii (na stronie tytułowej "Baſso pro Organo")	!	!LO:TX:a:t=Dies jrae Tacet	!LO:TX:a:t=Diesire CantiTacet	!LO:TX:a:t=problem&colon;brak nazwy partii (na stronie tytułowej "Baſso vocali")	!LO:TX:a:t=problem&colon;brak nazwy partii (na stronie tytułowej "Tenore")	!LO:TX:a:t=Dies irae TacetCanto Solo.	!LO:TX:a:i:t=Solo	!	!LO:TX:a:t=Dies jrae Tacet	!LO:TX:a:t=Dies irae Tacet
8C/L	.	1ryy	1ryy	1ryy	1ryy	1ryy	4.g/	Di-	1ryy	1ryy
8c\	.	.	.	.	.	.	.	.	.	.
8Bn\	6	.	.	.	.	.	.	.	.	.
8G\J	.	.	.	.	.	.	8g/	-es	.	.
!LO:TX:a:t=P:problem=mixed beam	!	!	!	!	!	!	!	!	!	!
.	6	.	.	.	.	.	.	.	.	.
8A-X\L	5	.	.	.	.	.	8cc\	i-	.	.
8F\	.	.	.	.	.	.	8cc\	-rae	.	.
8G\	.	.	.	.	.	.	8dd\	di-	.	.
.	4	.	.	.	.	.	.	.	.	.
8GG/J	3	.	.	.	.	.	8dd\	-es	.	.
=2	=2	=2	=2	=2	=2	=2	=2	=2	=2	=2
8C/L	.	1ryy	1ryy	1ryy	1ryy	1ryy	16ee-\LL	il-	1ryy	1ryy
.	.	.	.	.	.	.	(16dd\JJ	.	.	.
8D/	.	.	.	.	.	.	8cc\)	-la	.	.
8E-/	.	.	.	.	.	.	4r	.	.	.
8C/J	.	.	.	.	.	.	.	.	.	.
8F\L	.	.	.	.	.	.	2r	.	.	.
8G\	.	.	.	.	.	.	.	.	.	.
8A-X\	.	.	.	.	.	.	.	.	.	.
8F\J	.	.	.	.	.	.	.	.	.	.
!	!	!	!	!	!	!	!LO:LB:g=original	!	!	!
=3	=3	=3	=3	=3	=3	=3	=3	=3	=3	=3
!LO:TX:a:t=P:problem=mixed beam	!	!	!	!	!	!	!	!	!	!
8G\L	.	1ryy	1ryy	1ryy	1ryy	1ryy	2r	.	1ryy	1ryy
8F\	.	.	.	.	.	.	.	.	.	.
8G\	.	.	.	.	.	.	.	.	.	.
.	4	.	.	.	.	.	.	.	.	.
8GG/J	3	.	.	.	.	.	.	.	.	.
!LO:TX:a:t=P:problem=mixed beam	!	!	!	!	!	!	!	!	!	!
*	*	*	*	*	*	*	*	*ij	*	*
8C/L	.	.	.	.	.	.	4.g/	Di-	.	.
8c\	.	.	.	.	.	.	.	.	.	.
8Bn\	6	.	.	.	.	.	.	.	.	.
8G\J	.	.	.	.	.	.	8g/	-es	.	.
=4	=4	=4	=4	=4	=4	=4	=4	=4	=4	=4
!!pagebreak:original
!LO:TX:a:t=P:problem=mixed beam	!	!	!	!	!	!	!	!	!	!
.	6	.	.	.	.	.	.	.	.	.
8A-X\L	5	1ryy	1ryy	1ryy	1ryy	1ryy	8cc\	i-	1ryy	1ryy
8F\	.	.	.	.	.	.	8cc\	-rae	.	.
8G\	.	.	.	.	.	.	8dd\	di-	.	.
.	4	.	.	.	.	.	.	.	.	.
8GG/J	3	.	.	.	.	.	8dd\	-es	.	.
8C/L	.	.	.	.	.	.	(16ee-\LL	il-	.	.
.	.	.	.	.	.	.	16dd\JJ)	.	.	.
8D/	.	.	.	.	.	.	8cc\	-la	.	.
8E-/	.	.	.	.	.	.	4r	.	.	.
8C/J	.	.	.	.	.	.	.	.	.	.
*	*	*	*	*	*	*	*	*Xij	*	*
=5	=5	=5	=5	=5	=5	=5	=5	=5	=5	=5
8Bn\L	6	1ryy	1ryy	1ryy	1ryy	1ryy	4.dd\	ſol-	1ryy	1ryy
8A\	.	.	.	.	.	.	.	.	.	.
8Bn\	.	.	.	.	.	.	.	.	.	.
8G\J	6-	.	.	.	.	.	8ee-\	-vet	.	.
8A-X\L	6	.	.	.	.	.	4cc\	ſaec-	.	.
8G\	.	.	.	.	.	.	.	.	.	.
8A-\	.	.	.	.	.	.	4cc\	-lum	.	.
8F\J	.	.	.	.	.	.	.	.	.	.
!LO:LB;g=original	!	!	!	!	!	!	!	!	!	!
=6	=6	=6	=6	=6	=6	=6	=6	=6	=6	=6
*	*	*	*	*	*	*	*	*ij	*	*
8F\L	5	1ryy	1ryy	1ryy	1ryy	1ryy	4.cc\	ſol-	1ryy	1ryy
8C\	.	.	.	.	.	.	.	.	.	.
8F#X\	6	.	.	.	.	.	.	.	.	.
.	4	.	.	.	.	.	.	.	.	.
8D\J	3	.	.	.	.	.	8dd\	-vet	.	.
4GG/	.	.	.	.	.	.	8b-\	aec-	.	.
.	.	.	.	.	.	.	8b-\	-lum	.	.
*	*	*	*	*	*	*	*	*Xij	*	*
8C/L	5	.	.	.	.	.	8ee-\	in	.	.
8BB-/J	6	.	.	.	.	.	8dd\	fa-	.	.
=7	=7	=7	=7	=7	=7	=7	=7	=7	=7	=7
!!pagebreak:original
!LO:TX:a:t=P:problem=mixed beam	!	!	!	!	!	!	!	!	!	!
8AA/L	6	1ryy	1ryy	1ryy	1ryy	1ryy	16cc\LL	-vil-	1ryy	1ryy
.	.	.	.	.	.	.	(16dd\	.	.	.
8GG/	6	.	.	.	.	.	16b-\	.	.	.
.	.	.	.	.	.	.	16cc\JJ)	.	.	.
8D\	.	.	.	.	.	.	4a\	.	.	.
.	4	.	.	.	.	.	.	.	.	.
8DD/J	3	.	.	.	.	.	.	.	.	.
8GG/L	.	.	.	.	.	.	2g/	-la	.	.
8AA/	.	.	.	.	.	.	.	.	.	.
8BB-/	.	.	.	.	.	.	.	.	.	.
8GG/J	.	.	.	.	.	.	.	.	.	.
=8	=8	=8	=8	=8	=8	=8	=8	=8	=8	=8
8En\L	6	1ryy	1ryy	1ryy	1ryy	1ryy	4.g/	tes-	1ryy	1ryy
8D\	.	.	.	.	.	.	.	.	.	.
8En\	.	.	.	.	.	.	.	.	.	.
8C\J	.	.	.	.	.	.	8cc\	-te	.	.
8F\L	5	.	.	.	.	.	(8.a\L	da	.	.
8G\	.	.	.	.	.	.	.	.	.	.
.	.	.	.	.	.	.	16g\Jk)	.	.	.
8A\	.	.	.	.	.	.	4f/	vid	.	.
8F\J	6	.	.	.	.	.	.	.	.	.
=9	=9	=9	=9	=9	=9	=9	=9	=9	=9	=9
8F#X\L	6	1ryy	1ryy	1ryy	1ryy	1ryy	4a\	tes-	1ryy	1ryy
8En\	6	.	.	.	.	.	.	.	.	.
8F#\	.	.	.	.	.	.	4dd\	-te	.	.
8D\J	.	.	.	.	.	.	.	.	.	.
4G\	7	.	.	.	.	.	8bn\	da-	.	.
.	.	.	.	.	.	.	8g\	-vid	.	.
8C/L	.	.	.	.	.	.	[4cc\	cum	.	.
8D/J	.	.	.	.	.	.	.	.	.	.
=10	=10	=10	=10	=10	=10	=10	=10	=10	=10	=10
!LO:TX:a:t=P:problem=mixed beam	!	!	!	!	!	!	!LO:N:xstem:cue	!	!	!
8E-\L	.	1ryy	1ryy	1ryy	1ryy	1ryy	8cc\]	.	1ryy	1ryy
8F\	.	.	.	.	.	.	16dd\LL	Sÿ-	.	.
.	.	.	.	.	.	.	16ee-\JJ	.	.	.
8G\	.	.	.	.	.	.	4bn\	-bil-	.	.
.	4	.	.	.	.	.	.	.	.	.
8GG/J	3	.	.	.	.	.	.	.	.	.
8C/L	.	.	.	.	.	.	2cc\	-la	.	.
8D/	.	.	.	.	.	.	.	.	.	.
8E-/	.	.	.	.	.	.	.	.	.	.
8C/J	.	.	.	.	.	.	.	.	.	.
=11	=11	=11	=11	=11	=11	=11	=11	=11	=11	=11
!!pagebreak:original
8En\L	6	1ryy	1ryy	1ryy	1ryy	1ryy	4.g/	tes-	1ryy	1ryy
8D\	.	.	.	.	.	.	.	.	.	.
8E\	.	.	.	.	.	.	.	.	.	.
8C\J	.	.	.	.	.	.	8cc\	-te	.	.
8F\L	5	.	.	.	.	.	(8.a\L	da-	.	.
8G\	.	.	.	.	.	.	.	.	.	.
.	.	.	.	.	.	.	16g\Jk)	.	.	.
8A\	.	.	.	.	.	.	4f/	-vid	.	.
8F\J	5	.	.	.	.	.	.	.	.	.
!LO:LB:g=original	!	!	!	!	!	!	!	!	!	!
=12	=12	=12	=12	=12	=12	=12	=12	=12	=12	=12
8F#X\L	6	1ryy	1ryy	1ryy	1ryy	1ryy	4a\	tes-	1ryy	1ryy
8En\	.	.	.	.	.	.	.	.	.	.
8F#\	.	.	.	.	.	.	4dd\	-te	.	.
8D\J	.	.	.	.	.	.	.	.	.	.
4G\	#	.	.	.	.	.	8bn\	Da-	.	.
.	.	.	.	.	.	.	8g\	-vid	.	.
8C/L	.	.	.	.	.	.	[4cc\	cum	.	.
8D/J	.	.	.	.	.	.	.	.	.	.
=13	=13	=13	=13	=13	=13	=13	=13	=13	=13	=13
!LO:TX:a:t=P:problem=mixed beam	!	!	!	!	!	!	!LO:N:xstem:cue	!	!	!
8E-\L	.	1ryy	1ryy	1ryy	1ryy	1ryy	8cc\]	.	1ryy	1ryy
8F\	.	.	.	.	.	.	16dd\LL	Sÿ-	.	.
.	.	.	.	.	.	.	16ee-\JJ	.	.	.
8G\	.	.	.	.	.	.	4bn\	-bil-	.	.
.	4	.	.	.	.	.	.	.	.	.
8GG/J	3	.	.	.	.	.	.	.	.	.
8C/L	.	.	.	.	.	.	4cc\	-la	.	.
8D/	.	.	.	.	.	.	.	.	.	.
8E-/	.	.	.	.	.	.	4r	.	.	.
8C/J	.	.	.	.	.	.	.	.	.	.
=14	=14	=14	=14	=14	=14	=14	=14	=14	=14	=14
8F\L	.	1ryy	1ryy	1ryy	1ryy	1ryy	1r	.	1ryy	1ryy
8G\	.	.	.	.	.	.	.	.	.	.
8A-X\	.	.	.	.	.	.	.	.	.	.
8F\J	.	.	.	.	.	.	.	.	.	.
!LO:TX:a:t=P:problem=mixed beam	!	!	!	!	!	!	!	!	!	!
8G\L	.	.	.	.	.	.	.	.	.	.
8F\	.	.	.	.	.	.	.	.	.	.
8G\	.	.	.	.	.	.	.	.	.	.
.	4	.	.	.	.	.	.	.	.	.
8GG/J	3	.	.	.	.	.	.	.	.	.
=15	=15	=15	=15	=15	=15	=15	=15	=15	=15	=15
4C/	.	1ryy	1ryy	1ryy	1ryy	1ryy	4r	.	1ryy	1ryy
4ryy	.	.	.	.	.	.	4ryy	.	.	.
2ryy	.	.	.	.	.	.	2ryy	.	.	.
=||	=||	=||	=||	=||	=||	=||	=||	=||	=||	=||
*-	*-	*-	*-	*-	*-	*-	*-	*-	*-	*-
!!!system-decoration: [(s1,s2)][(s3,s4,s5,s6)][(s7,s8)]s9
!!!EED: Leszek Kubiak
!!!EEV: 2020-12-01
!!!ENC: Andrzej Borzym
!!!END: 2020-04-28
!!!YEC: Copyright 2022 Narodowy Instytut Fryderyka Chopina (https://polishscores.org)
!!!YEM: License CC-BY-4.0 (https://creativecommons.org/licenses/by/4.0)
